X: 1
T: Barney's Balmoral
C:
R: reel
Z: 2020 John Chambers <jc:trillian.mit.edu>
S: Fiddle Hell 2020 handout for Jenna Moynihan's workshop
M: 4/4
L: 1/8
K: D
|:\
f2fA BABd | defA BABd | f2fA BABd | e2dB Adde :|
|:\
f2af fafd | e2fd BdBA |1 f2af fafd | e2dB Adde \
                     :|2 f2af e2fA | BBBA Bdda |]
|:\
fABd f2ed | aABd efed | aABd f2ed | e2dB Adda :|
|:\
f2df e2de | f2df edBA |1 f2df e2de | e2dB Adda \
                     :|2 fA~A2 BABd | e2dB Adda |]
